packages/blockchain-info-components/src/Images/img/swap-success.svg

<svg fill="none" height="87" viewBox="0 0 87 87" width="87" xmlns="http://www.w3.org/2000/svg" xmlns:xlink="http://www.w3.org/1999/xlink"><clipPath id="a"><path d="m47 0h40v40h-40z"/></clipPath><circle cx="36" cy="51" fill="#0c6cf2" r="36"/><path d="m29.1114 35.6149c-.8786-.8787-2.3033-.8787-3.1819 0l-13.7939 13.7939c-.8787.8787-.8787 2.3033 0 3.182l13.7939 13.7939c.8786.8786 2.3033.8786 3.1819 0l1.066-1.066c.8787-.8787.8787-2.3033 0-3.182l-8.1376-8.1375h27.9207l-8.1375 8.1375c-.8787.8787-.8787 2.3033 0 3.182l1.066 1.0661c.8787.8787 2.3034.8787 3.182 0l13.7939-13.7939c.8787-.8787.8787-2.3033 0-3.182l-13.7939-13.7938c-.8786-.8787-2.3033-.8787-3.1819 0l-1.066 1.0659c-.8787.8787-.8787 2.3033 0 3.182l8.1287 8.1287h-27.903l8.1287-8.1287c.8787-.8787.8787-2.3033 0-3.182z" fill="#fff"/><g clip-path="url(#a)"><circle cx="67" cy="20" fill="#fff" r="20"/><path clip-rule="evenodd" d="m67 36c8.8366 0 16-7.1634 16-16s-7.1634-16-16-16-16 7.1634-16 16 7.1634 16 16 16zm-9.7909-15.1242 2.8285-2.8284 4 4 10.5049-10.5049 2.8284 2.8284-13.3333 13.3333z" fill="#17cf73" fill-rule="evenodd"/></g></svg>

<svg width="87" height="87" viewBox="0 0 87 87" fill="none" xmlns="http://www.w3.org/2000/svg">
<circle cx="36" cy="51" r="36" fill="#0C6CF2"/>
<path d="M29.1114 35.6149C28.2328 34.7362 26.8081 34.7362 25.9295 35.6149L12.1356 49.4088C11.2569 50.2875 11.2569 51.7121 12.1356 52.5908L25.9295 66.3847C26.8081 67.2633 28.2328 67.2633 29.1114 66.3847L30.1774 65.3187C31.0561 64.44 31.0561 63.0154 30.1774 62.1367L22.0398 53.9992H49.9605L41.823 62.1367C40.9443 63.0154 40.9443 64.44 41.823 65.3187L42.889 66.3848C43.7677 67.2635 45.1924 67.2635 46.071 66.3848L59.8649 52.5909C60.7436 51.7122 60.7436 50.2876 59.8649 49.4089L46.071 35.6151C45.1924 34.7364 43.7677 34.7364 42.8891 35.6151L41.8231 36.681C40.9444 37.5597 40.9444 38.9843 41.8231 39.863L49.9518 47.9917H22.0488L30.1775 39.863C31.0562 38.9843 31.0562 37.5597 30.1775 36.681L29.1114 35.6149Z" fill="white"/>
<g clip-path="url(#clip0_502_40233)">
<circle cx="67" cy="20" r="20" fill="white"/>
<path fill-rule="evenodd" clip-rule="evenodd" d="M67 36C75.8366 36 83 28.8366 83 20C83 11.1634 75.8366 4 67 4C58.1634 4 51 11.1634 51 20C51 28.8366 58.1634 36 67 36ZM57.2091 20.8758L60.0376 18.0474L64.0376 22.0474L74.5425 11.5425L77.3709 14.3709L64.0376 27.7042L57.2091 20.8758Z" fill="#17CF73"/>
</g>
<defs>
<clipPath id="clip0_502_40233">
<rect width="40" height="40" fill="white" transform="translate(47)"/>
</clipPath>
</defs>
</svg>
